!!!COM: Mozart
!!!OTL: 12 Variations on "Ah Vous dirais-je, Maman" for the Piano
!!!Variation: 10 b
**function	**harm	**kern	**kern
*	*	*clefF4	*clefG2
*	*	*k[]	*k[]
*M2/4	*M2/4	*M2/4	*M2/4
*C:	*C:	*C:	*C:
=249	=249	=249	=249
2D	C:maj/5	4GGG 4GG	16r
.	.	.	(16eLL
.	.	.	16cc
.	.	.	16eJJ)
*	*	*clefG2	*
.	.	4gg	16r
.	.	.	(16eLL
.	.	.	16cc
.	.	.	16eJJ)
=250	=250	=250	=250
4D	D:7	4ff#	16r
.	.	.	(16dLL
.	.	.	16cc
.	.	.	16dJJ)
4D	B:dim7	4ff	16r
.	.	.	(16dLL
.	.	.	16b
.	.	.	16dJJ)
=251	=251	=251	=251
4D	C:maj	4ee	16r
.	.	.	(16cLL
.	.	.	16cc
.	.	.	16cJJ)
*	*	*clefF4	*
4D	C:min/5	4GG 4G	16r
.	.	.	(16gLL
.	.	.	16cc 16ee-
.	.	.	16gJJ)
=252	=252	=252	=252
4D	D:7/3	4FF# 4F#	16r
.	.	.	(16aLL
.	.	.	16cc 16dd
.	.	.	16aJJ)
4D	B:dim7/b5	4FF 4F	16r
.	.	.	(16a-LL
.	.	.	16b 16dd
.	.	.	16a-JJ)
=253	=253	=253	=253
4D	C:maj/3	4EE 4E	16r
.	.	.	(16gLL
.	.	.	16cc 16ee
.	.	.	16gJJ)
4D	G:maj	4EE- 4E-	16r
.	.	.	(16gLL
.	.	.	16cc# 16gg
.	.	.	16gJJ)
=254	=254	=254	=254
4D	D:maj	4DD 4D	16r
.	.	.	(16aLL
.	.	.	16dd 16ff#
.	.	.	16aJJ)
4D	B:dim7	4BBB 4BB	16r
.	.	.	(16a-LL
.	.	.	16dd 16ff
.	.	.	16a-JJ)
=255	=255	=255	=255
4D	C:maj	4CC 4C	16r
.	.	.	(16gLL
.	.	.	16cc 16ee
.	.	.	16gJJ)
4D	F#:dim7	4FFF# 4FF#	16r
.	.	.	(16aLL
.	.	.	16cc 16ee-
.	.	.	16aJJ)
=256	=256	=256	=256
2D	G:maj	4GGG 4GG	(16bLL 16dd
.	.	.	16cc
.	.	.	16b
.	.	.	16aJJ
.	.	4r	16gLL
.	.	.	16f
.	.	.	16e
.	.	.	16dJJ)
*-	*-	*-	*-
!!!EMD: Edited in humdrumR 0.7.0.3 on 2024-01-19
